brandFactory_export/2.Regular/Movil interrogacion_2Regular.svg

<?xml version="1.0" encoding="UTF-8"?>
<svg width="24px" height="24px" viewBox="0 0 24 24" version="1.1" xmlns="http://www.w3.org/2000/svg" xmlns:xlink="http://www.w3.org/1999/xlink">
    <title>2.Regular/Movil interrogacion_2Regular</title>
    <g id="Symbols" stroke="none" stroke-width="1" fill="none" fill-rule="evenodd">
        <g id="2.Regular/Movil-interrogacion_2Regular" fill="#5CB615" fill-rule="nonzero">
            <path d="M6.55462185,15.112605 C7.03865546,15.112605 7.37478992,15.4453782 7.37478992,15.902521 C7.37478992,16.4067227 7.04537815,16.7294118 6.57478992,16.7294118 C6.08403361,16.7294118 5.75462185,16.410084 5.75462185,15.9495798 L5.75462185,15.9058824 C5.75462185,15.4453782 6.0907563,15.112605 6.55462185,15.112605 Z M8.54453782,8.11092437 C9.09243697,8.50756303 9.34789916,9.05546218 9.34789916,9.83193277 C9.34789916,10.7563025 8.95462185,11.3210084 8.11428571,12.3058824 C7.17983193,13.3781513 7.17983193,13.3781513 7.17983193,14.3159664 C7.17983193,14.5815126 6.96134454,14.7966387 6.69243697,14.7966387 L6.37983193,14.7966387 C6.14789916,14.7966387 5.94957983,14.6352941 5.90252101,14.4067227 C5.87226891,14.2487395 5.85546218,14.087395 5.85882353,13.9260504 C5.85882353,13.1092437 6.15462185,12.6117647 6.77983193,11.8689076 L6.89747899,11.7310924 C7.89915966,10.5579832 8.0302521,10.2857143 8.0302521,9.82184874 C8.0302521,9.49243697 7.94621849,9.29747899 7.72773109,9.12268908 C7.60336134,9.02184874 7.37478992,8.90756303 6.70252101,8.90756303 C6.32268908,8.90756303 5.98319328,8.9512605 5.57647059,9.05546218 C5.31092437,9.11932773 5.04537815,8.95462185 4.98151261,8.69243697 C4.98151261,8.68907563 4.97815126,8.68235294 4.97815126,8.6789916 L4.93109244,8.44033613 C4.8907563,8.22184874 5.00168067,8.00672269 5.20336134,7.91260504 C5.5394958,7.75462185 6.24537815,7.63692333 6.84369748,7.63692333 C7.55294118,7.63361345 8.12436975,7.79495798 8.54453782,8.11092437 L8.54453782,8.11092437 Z M22.1613445,19.1865546 L22.1613445,4.42689076 C22.1613445,3.38487395 21.9294118,2.64201681 21.4420168,2.17142857 C20.9546218,1.68067227 20.205042,1.44537815 19.1529412,1.44537815 L11.7042017,1.44537815 C10.6621849,1.44537815 9.91260504,1.68739496 9.41512605,2.17815126 C8.92773109,2.66890756 8.69579832,3.40504202 8.69579832,4.42689076 L8.69579832,5.03529412 C12.2117647,5.51596639 14.2252101,7.76470588 14.2252101,11.9697479 C14.2252101,16.1647059 12.2184874,18.4134454 8.70252101,18.9042017 L8.70252101,19.6168067 C8.75294118,20.4268908 8.98487395,21.0453782 9.41176471,21.4588235 C9.89915966,21.9394958 10.6487395,22.1747899 11.7008403,22.1747899 L19.1495798,22.1747899 C20.2016807,22.1747899 20.9512605,21.9428571 21.4386555,21.4588235 C21.9294118,20.9882353 22.1613445,20.2487395 22.1613445,19.1865546 L22.1613445,19.1865546 Z M7.1092437,17.5663866 C10.9647059,17.5663866 12.7663866,15.7915966 12.7663866,11.9731092 C12.7663866,8.15462185 10.9647059,6.37983193 7.1092437,6.37983193 C3.26386555,6.37983193 1.46218487,8.15462185 1.46218487,11.9731092 C1.46218487,15.7915966 3.2605042,17.5663866 7.1092437,17.5663866 Z M22.4739496,1.14957983 C23.2537815,1.91260504 23.6235294,2.99159664 23.6235294,4.42689076 L23.6235294,19.1865546 C23.6235294,20.6521008 23.2436975,21.7344538 22.4638655,22.4941176 C21.6941176,23.2470588 20.6117647,23.6235294 19.1529412,23.6235294 L11.7042017,23.6235294 C10.2420168,23.6235294 9.16302521,23.2470588 8.38319328,22.4941176 C7.6907563,21.8084034 7.3210084,20.8840336 7.24369748,19.6705882 L7.24369748,19.0151261 L7.10588235,19.0151261 C2.62184874,19.0117647 0,16.7663866 0,11.9697479 C0,7.17647059 2.62184874,4.93109244 7.1092437,4.93109244 L7.23697479,4.93109244 L7.23697479,4.42689076 C7.23697479,3.00840336 7.60672269,1.9394958 8.38319328,1.16638655 C9.16302521,0.386554622 10.2453782,0 11.7042017,0 L19.1529412,0 C20.6151261,0 21.7042017,0.376470588 22.4739496,1.14957983 Z M15.4252101,17.7579832 C16.2218487,17.7579832 16.692437,18.2218487 16.692437,19.0117647 C16.692437,19.394958 16.5848739,19.7042017 16.3596639,19.9159664 C16.1344538,20.1478992 15.8117647,20.2621849 15.4252101,20.2621849 C15.0352941,20.2621849 14.7159664,20.1478992 14.4907563,19.9159664 C14.2756303,19.7042017 14.1714106,19.394958 14.1714106,19.0117647 C14.1680672,18.2218487 14.6352941,17.7579832 15.4252101,17.7579832 Z" id="Movil-interrogacion_2Regular"></path>
        </g>
    </g>
</svg>

<svg width="24" height="24" viewBox="0 0 24 24" xmlns="http://www.w3.org/2000/svg"><path d="M6.555 15.113c.484 0 .82.332.82.79 0 .504-.33.826-.8.826-.491 0-.82-.319-.82-.78v-.043c0-.46.336-.793.8-.793zm1.99-7.002c.547.397.803.944.803 1.72 0 .925-.393 1.49-1.234 2.475-.934 1.072-.934 1.072-.934 2.01 0 .266-.219.48-.488.48H6.38a.486.486 0 01-.477-.39 2.305 2.305 0 01-.044-.48c0-.817.296-1.314.92-2.057l.118-.138C7.9 10.558 8.03 10.286 8.03 9.821c0-.329-.084-.524-.302-.698-.125-.101-.353-.215-1.025-.215-.38 0-.72.043-1.127.147a.494.494 0 01-.594-.363l-.004-.013-.047-.239a.483.483 0 01.272-.527c.336-.158 1.042-.276 1.64-.276.71-.003 1.281.158 1.702.474zM22.16 19.187V4.427c0-1.042-.232-1.785-.719-2.256-.487-.49-1.237-.726-2.29-.726h-7.448c-1.042 0-1.791.242-2.289.733-.487.49-.72 1.227-.72 2.249v.608c3.517.481 5.53 2.73 5.53 6.935 0 4.195-2.007 6.443-5.522 6.934v.713c.05.81.282 1.428.709 1.842.487.48 1.237.716 2.289.716h7.449c1.052 0 1.801-.232 2.289-.716.49-.47.722-1.21.722-2.272zM7.11 17.567c3.856 0 5.657-1.775 5.657-5.594 0-3.818-1.801-5.593-5.657-5.593-3.845 0-5.647 1.775-5.647 5.593 0 3.819 1.799 5.593 5.647 5.593zM22.474 1.15c.78.763 1.15 1.842 1.15 3.277v14.76c0 1.465-.38 2.547-1.16 3.307-.77.753-1.852 1.13-3.311 1.13h-7.449c-1.462 0-2.541-.377-3.32-1.13-.693-.686-1.063-1.61-1.14-2.823v-.656h-.138C2.622 19.012 0 16.766 0 11.97 0 7.176 2.622 4.93 7.11 4.93h.127v-.504c0-1.419.37-2.488 1.146-3.26C9.163.386 10.245 0 11.704 0h7.449c1.462 0 2.551.376 3.32 1.15zm-7.049 16.608c.797 0 1.267.464 1.267 1.254 0 .383-.107.692-.332.904-.226.232-.548.346-.935.346-.39 0-.709-.114-.934-.346-.215-.212-.32-.521-.32-.904-.003-.79.464-1.254 1.254-1.254z" fill="#5CB615" fill-rule="nonzero"/></svg>
